!!!OTL: AM STILLEN HAIN IM MONDENSCHEIN
!!!ARE: Europa, Mitteleuropa, Deutschland
!!!SCT: F0934
!!!YEM: Copyright 1995, estate of Helmut Schaffrath.
**kern
*ICvox
*Ivox
*M3/4
*k[b-e-a-d-]
*A-:
{4e-
=1
8.cc
16cc
4.cc
8e-
=2
8.dd-
16dd-
4.dd-}
{16cc
16cc
=3
[4b-
12b-]
12an
12b-
12b-
12cc
12dd-
=4
[4ee-
12ee-]
12ddn
12ee-
12ee-
12cc
12a-}
=5
{2aa-
8gg-
8ff-
=6
4.ee-
8cc}
{8ee-
8aa-
=7
4aa-
8gg
8dd-
8ff
8ee-
=8
[2.ee-
=9
4ee-]
4r}
==
!!!AGN: Liebes - Lied
!!!ONB: ESAC (Essen Associative Code) Database: FINK
!!!AMT: simple triple
!!!AIN: vox
!!!EED: Helmut Schaffrath
!!!EEV: 1.0
*-
